X: 6
T: The Abbey
R: reel
M: 4/4
L: 1/8
K: Ador
| A3B A2GE | A2GA BedB | A3B AGED | G3A BedB || A3B A2GE | A2GA BedB | AGAB AGED | G3A Bddg || eggg gaba | gabg aged | egg2 a2ga | bgef gedg |eggg agbg | agbg aged | eggg gaga | bgef gedB |


Tune 477	Setting 477

